X:138
T: Alte Kuckukslieder (Kuckuks Verachtung)
N: A0170B
O: Europa, Mitteleuropa, Deutschland
N: Aus Fragmenten in Schmeltzels neuntem Quodlibet (1544) von mir
N: zusammengefuegt. Anders und ohne alle musikalische Ruecksicht
N: von Uhland No. 14 zusammengesetzt.
R: Romanze, Ballade, Lied
M: 3/4
L: 1/8
K: F
F2 | A4G2 | A4B2 | c4
c2 | c3BA2 | B2A2G2 | F4
A2 | B4B2 | A4F2 | G4G2 | F2F2
F2 | B4B2 | A4F2 | G4G2 | F2F2

@@@ Tune index: 138
